docs/.gitbook/assets/icon-app-window-16@light.svg

<svg width="32" height="32" viewBox="0 0 16 16" fill="none" xmlns="http://www.w3.org/2000/svg">
<rect x="0" y="0" width="16" height="16" fill="#fff"/>
<path fill-rule="evenodd" clip-rule="evenodd" d="M1 3.75C1 2.23122 2.23122 1 3.75 1H12.25C13.7688 1 15 2.23122 15 3.75V4.75V12.25C15 13.7688 13.7688 15 12.25 15H3.75C2.23122 15 1 13.7688 1 12.25V4.75V3.75ZM3.75 2.5C3.05964 2.5 2.5 3.05964 2.5 3.75V4H13.5V3.75C13.5 3.05964 12.9404 2.5 12.25 2.5H3.75ZM13.5 5.5H2.5V12.25C2.5 12.9404 3.05964 13.5 3.75 13.5H12.25C12.9404 13.5 13.5 12.9404 13.5 12.25V5.5Z" fill="#000"/>
</svg>

<svg xmlns="http://www.w3.org/2000/svg" width="32" height="32" fill="none" viewBox="0 0 16 16"><path fill="#fff" d="M0 0h16v16H0z"/><path fill="#000" fill-rule="evenodd" d="M1 3.75A2.75 2.75 0 0 1 3.75 1h8.5A2.75 2.75 0 0 1 15 3.75v8.5A2.75 2.75 0 0 1 12.25 15h-8.5A2.75 2.75 0 0 1 1 12.25zM3.75 2.5c-.69 0-1.25.56-1.25 1.25V4h11v-.25c0-.69-.56-1.25-1.25-1.25zm9.75 3h-11v6.75c0 .69.56 1.25 1.25 1.25h8.5c.69 0 1.25-.56 1.25-1.25z" clip-rule="evenodd"/></svg>
